X:1
T:Nuovo cinema paradiso
T:Violin
L:1/8
M:2/4
K:C
V:1 treble nm="Violin" snm="Vln."
V:1
 c3 E | Fc BA | Bd G>F | F2 E2- | EE GB | dc Bc | e3 e | A^G A=g | f4- | fd ag | gf ed | c3 c | %12
 dc BG | A4- | A2 Bc | B4- | B4 :| G4- | G2- G>F | F4 | E4- | E4 |] %22

